usr/share/icons/biglinux-icons-material-dark/16/actions/format-connect-node.svg

<svg xmlns="http://www.w3.org/2000/svg" viewBox="0 0 16 16">
  <defs id="defs3051">
    <style type="text/css" id="current-color-scheme">
      .ColorScheme-Text {
        color:#dedede;
      }
      .ColorScheme-Highlight {
        color:#3daee9;
      }
      </style>
  </defs>
  <path 
        style="fill:currentColor;fill-opacity:1;stroke:none"
        d="m 14,14 0,-3 -3,0 0,0.99975 -6,0 L 5,11 l -3,0 0,3 3,0 0,-0.99975 6,0 L 11,14 Z m -0.99975,-0.99975 -0.99975,0 0,-0.99975 0.99975,0 z m -9,0 -0.99975,0 0,-0.99975 0.99975,0 z M 14,5 l 0,-3 -3,0 0,0.99975 -2.00025,0 0,0.99975 2.00025,0 0,0.99975 z m -9,0 0,-0.99975 2.00025,0 0,-0.99975 -2.00025,0 0,-0.99975 -3,0 0,3 z m 8.00025,-0.99975 -0.99975,0 0,-0.99975 0.99975,0 z m -9,0 -0.99975,0 0,-0.99975 0.99975,0 z"
        class="ColorScheme-Text"
        />
  <path 
        style="fill:currentColor;fill-opacity:1;stroke:none"
        d="m 5.99975,7.0025 2.00025,3 2.00025,-3 z"
        class="ColorScheme-Highlight"
        />
</svg>

<svg xmlns="http://www.w3.org/2000/svg" viewBox="0 0 16 16">
<defs id="defs3051">
<style id="current-color-scheme" type="text/css">
.ColorScheme-Text{color:#dedede}.ColorScheme-Highlight{color:#3daee9}
</style>
</defs>
<path d="M14 14v-3h-3v1H5v-1H2v3h3v-1h6v1Zm-1-1h-1v-1h1zm-9 0H3v-1h1zm10-8V2h-3v1H9v1h2v1zM5 5V4h2V3H5V2H2v3zm8-1h-1V3h1zM4 4H3V3h1z" class="ColorScheme-Text" style="fill:currentColor;fill-opacity:1;stroke:none"/>
<path d="m6 7.003 2 3 2-3z" class="ColorScheme-Highlight" style="fill:currentColor;fill-opacity:1;stroke:none"/>
</svg>
